digitransit-component/packages/digitransit-component-icon/src/assets/ferry-waltti.svg

<svg width="20" height="18" viewBox="0 0 20 18" fill="none" xmlns="http://www.w3.org/2000/svg">
<path fill-rule="evenodd" clip-rule="evenodd" d="M7.75 0.25C7.75 0.111929 7.86193 0 8 0H12C12.1381 0 12.25 0.111929 12.25 0.25V2H15C15.5523 2 16 2.44772 16 3V4V8.77742C16 8.9333 15.8873 9.02597 15.7497 8.98325L10.2252 7.26007C10.0876 7.21736 9.8625 7.2179 9.72511 7.26116L4.25004 8.9893C4.11266 9.03266 4 8.94026 4 8.78402V4V3C4 2.44772 4.44772 2 5 2H7.75V0.25ZM5.25 4C5.11193 4 5 4.11193 5 4.25V5.25C5 5.38807 5.11193 5.5 5.25 5.5H7.25C7.38807 5.5 7.5 5.38807 7.5 5.25V4.25C7.5 4.11193 7.38807 4 7.25 4H5.25ZM9 4C8.86193 4 8.75 4.11193 8.75 4.25V5.25C8.75 5.38807 8.86193 5.5 9 5.5H11C11.1381 5.5 11.25 5.38807 11.25 5.25V4.25C11.25 4.11193 11.1381 4 11 4H9ZM12.5 4.25C12.5 4.11193 12.6119 4 12.75 4H14.75C14.8881 4 15 4.11193 15 4.25V5.25C15 5.38807 14.8881 5.5 14.75 5.5H12.75C12.6119 5.5 12.5 5.38807 12.5 5.25V4.25Z" fill="white"/>
<path fill-rule="evenodd" clip-rule="evenodd" d="M10.2201 8.48927L18.7913 10.5959C18.9422 10.6329 19.0314 10.7857 18.9896 10.9351L18.1136 14.0748C17.4057 14.1984 16.9392 14.4549 16.5135 14.6892C15.9733 14.9864 15.5068 15.2421 14.5179 15.2421C13.5301 15.2421 13.0635 14.9861 12.5241 14.6902L12.5223 14.6892L12.5191 14.6874C11.9323 14.3653 11.2669 14 9.99915 14C8.72913 14 8.06364 14.3658 7.47604 14.6892C6.93586 14.9864 6.47019 15.2421 5.48127 15.2421C4.49273 15.2421 4.02619 14.9857 3.48712 14.6895L3.48649 14.6892L3.4833 14.6874C3.05843 14.4542 2.59237 14.1983 1.88633 14.0749L1.01027 10.9351C0.968531 10.7857 1.05782 10.6325 1.20863 10.5949L9.67177 8.4901C9.82239 8.45258 10.0693 8.4523 10.2201 8.48927Z" fill="white"/>
<path d="M16.5135 15.9392C15.9733 16.2364 15.5068 16.4921 14.5179 16.4921C13.529 16.4921 13.0624 16.2355 12.5223 15.9392C11.9347 15.6166 11.2692 15.25 9.99915 15.25C8.72913 15.25 8.06364 15.6158 7.47604 15.9392C6.93586 16.2364 6.47019 16.4921 5.48127 16.4921C4.49234 16.4921 4.02582 16.2355 3.48649 15.9392C2.89889 15.6166 2.2334 15.25 0.963379 15.25V16.3456C1.9523 16.3456 2.41882 16.6021 2.959 16.8985C3.5466 17.2211 4.21209 17.5877 5.48211 17.5877C6.75213 17.5877 7.41762 17.2219 8.00522 16.8985C8.5454 16.6013 9.01108 16.3456 10 16.3456C10.9889 16.3456 11.4554 16.6021 11.9956 16.8985C12.5832 17.2211 13.2487 17.5877 14.5187 17.5877C15.7888 17.5877 16.4542 17.2219 17.0418 16.8985C17.582 16.6013 18.0485 16.3456 19.0375 16.3456V15.25C17.7666 15.25 17.1011 15.6158 16.5135 15.9392Z" fill="white"/>
</svg>

<svg xmlns="http://www.w3.org/2000/svg" width="20" height="18" fill="none" viewBox="0 0 20 18">
 <path fill="#fff" fill-rule="evenodd" d="M7.75.25A.25.25 0 0 1 8 0h4a.25.25 0 0 1 .25.25V2H15a1 1 0 0 1 1 1v5.777c0 .156-.113.249-.25.206L10.225 7.26a1 1 0 0 0-.5.001L4.25 8.99C4.113 9.033 4 8.94 4 8.784V3a1 1 0 0 1 1-1h2.75zM5.25 4a.25.25 0 0 0-.25.25v1c0 .138.112.25.25.25h2a.25.25 0 0 0 .25-.25v-1A.25.25 0 0 0 7.25 4zM9 4a.25.25 0 0 0-.25.25v1c0 .138.112.25.25.25h2a.25.25 0 0 0 .25-.25v-1A.25.25 0 0 0 11 4zm3.5.25a.25.25 0 0 1 .25-.25h2a.25.25 0 0 1 .25.25v1a.25.25 0 0 1-.25.25h-2a.25.25 0 0 1-.25-.25z" clip-rule="evenodd"/>
 <path fill="#fff" fill-rule="evenodd" d="m10.22 8.49 8.571 2.106c.151.037.24.19.199.34l-.876 3.139c-.708.123-1.175.38-1.6.614-.54.297-1.007.553-1.996.553-.988 0-1.455-.256-1.994-.552h-.002l-.003-.003C11.932 14.365 11.267 14 10 14c-1.27 0-1.935.366-2.523.69-.54.296-1.006.552-1.995.552-.988 0-1.455-.256-1.994-.553l-.004-.002c-.425-.233-.89-.489-1.597-.612l-.876-3.14a.274.274 0 0 1 .199-.34L9.672 8.49a1.4 1.4 0 0 1 .548 0" clip-rule="evenodd"/>
 <path fill="#fff" d="M16.514 15.94c-.54.296-1.007.552-1.996.552s-1.456-.257-1.996-.553c-.587-.322-1.253-.689-2.523-.689s-1.935.366-2.523.69c-.54.296-1.006.552-1.995.552s-1.455-.257-1.995-.553c-.587-.322-1.253-.689-2.523-.689v1.096c.99 0 1.456.256 1.996.552.588.323 1.253.69 2.523.69s1.936-.366 2.523-.69c.54-.297 1.006-.552 1.995-.552s1.455.256 1.996.552c.587.323 1.253.69 2.523.69s1.935-.366 2.523-.69c.54-.297 1.006-.552 1.995-.552V15.25c-1.27 0-1.936.366-2.523.69"/>
</svg>
